src/assets/images/logos/logo-color.svg

<svg width="342" height="110" viewBox="0 0 342 110" fill="none" xmlns="http://www.w3.org/2000/svg">
<path d="M52.9212 41.0483C52.9212 47.3495 47.7736 52.3904 41.5423 52.3904H15.8946C9.57293 52.3904 4.51562 47.2594 4.51562 41.0483V15.4837C4.51562 9.18252 9.66324 4.1416 15.8946 4.1416H41.5423C47.8639 4.1416 52.9212 9.18252 52.9212 15.4837V41.0483Z" fill="#B9C400"/>
<path d="M106.203 41.0483C106.203 47.3495 101.056 52.3904 94.8245 52.3904H69.1767C62.8551 52.3904 57.7978 47.2594 57.7978 41.0483V15.4837C57.7978 9.18252 62.9454 4.1416 69.1767 4.1416H94.8245C101.146 4.1416 106.203 9.18252 106.203 15.4837V41.0483Z" fill="#63C2D0"/>
<path d="M52.9212 94.1577C52.9212 100.459 47.7736 105.5 41.5423 105.5H15.8946C9.57293 105.5 4.51562 100.369 4.51562 94.1577V68.593C4.51562 62.2919 9.66324 57.251 15.8946 57.251H41.5423C47.8639 57.251 52.9212 62.3819 52.9212 68.593V94.1577Z" fill="#DC6BA5"/>
<path d="M106.203 94.1577C106.203 100.459 101.056 105.5 94.8245 105.5H69.1767C62.8551 105.5 57.7978 100.369 57.7978 94.1577V68.593C57.7978 62.2919 62.9454 57.251 69.1767 57.251H94.8245C101.146 57.251 106.203 62.3819 106.203 68.593V94.1577Z" fill="#EF7F3C"/>
<path d="M132.303 46.7196C126.162 46.7196 122.278 45.0093 118.485 41.3186L120.653 39.1582C124.356 42.8489 127.426 44.0191 132.393 44.0191C138.895 44.0191 143.049 40.8685 143.049 35.4675C143.049 33.0371 142.327 30.9667 140.792 29.7065C139.257 28.4462 138.173 27.9962 134.831 27.5461L130.045 26.826C126.884 26.3759 124.446 25.2957 122.64 23.8554C120.472 21.9651 119.389 19.4446 119.389 16.294C119.389 9.36278 124.356 5.04199 132.212 5.04199C137.36 5.04199 140.611 6.39224 144.133 9.54281L142.056 11.6132C139.527 9.36278 136.908 7.8325 132.032 7.8325C126.071 7.8325 122.459 11.1631 122.459 16.3841C122.459 18.7245 123.182 20.5248 124.626 21.785C126.071 23.0453 128.419 23.9454 130.767 24.3055L135.283 25.0256C139.166 25.5657 140.882 26.2859 142.688 27.7261C144.946 29.6165 146.301 32.407 146.301 35.7376C146.21 42.3088 140.882 46.7196 132.303 46.7196Z" fill="#1D1D1B"/>
<path d="M158.402 46.3583H155.513L145.308 18.4532H148.559L156.957 42.9377L165.356 18.4532H168.607L158.402 46.3583Z" fill="#1D1D1B"/>
<path d="M187.03 25.3856C185.766 22.505 182.966 20.7047 179.805 20.7047C176.644 20.7047 173.755 22.505 172.581 25.3856C171.858 27.0959 171.677 27.996 171.587 30.6965H188.114C187.933 27.996 187.752 27.1859 187.03 25.3856ZM171.497 33.037C171.497 40.1482 174.658 44.019 180.618 44.019C183.959 44.019 185.946 43.0288 188.385 40.6883L190.552 42.3987C187.662 45.2792 185.133 46.7194 180.437 46.7194C172.671 46.7194 168.517 41.7685 168.517 32.4068C168.517 23.4052 172.671 18.0942 179.715 18.0942C186.669 18.0942 190.913 23.2252 190.913 31.6867V33.037H171.497Z" fill="#1D1D1B"/>
<path d="M210.961 22.954C209.245 21.2437 207.981 20.7936 205.633 20.7936C200.847 20.7936 198.137 24.7543 198.137 29.2551V46.4482H195.157V18.5432H198.137V22.2338C199.763 19.6234 203.014 18.1831 206.356 18.1831C209.065 18.1831 211.142 18.9032 213.129 20.8836L210.961 22.954Z" fill="#1D1D1B"/>
<path d="M215.297 18.4527H218.277V46.3577H215.297V18.4527ZM214.936 5.13025H218.638V8.82092H214.936V5.13025Z" fill="#1D1D1B"/>
<path d="M233.539 20.7036C226.676 20.7036 225.592 26.6446 225.592 32.4057C225.592 38.1667 226.676 44.1078 233.539 44.1078C240.403 44.1078 241.486 38.1667 241.486 32.4057C241.486 26.6446 240.403 20.7036 233.539 20.7036ZM232.997 60.0407C228.843 60.0407 226.676 58.9605 223.786 56.35L225.773 54.3697C227.94 56.35 229.475 57.4302 232.997 57.4302C238.867 57.4302 241.486 53.2895 241.486 47.7985V42.8476C239.048 46.0882 236.339 46.8083 233.178 46.8083C230.288 46.8083 227.759 45.8181 226.315 44.3779C223.425 41.4973 222.702 36.9065 222.702 32.4957C222.702 28.0849 223.425 23.4941 226.315 20.6135C227.759 19.1733 230.288 18.1831 233.178 18.1831C236.339 18.1831 239.048 18.9032 241.486 22.1438V18.5432H244.467V48.0685C244.376 54.9998 240.222 60.0407 232.997 60.0407Z" fill="#1D1D1B"/>
<path d="M267.314 25.3856C266.05 22.505 263.25 20.7047 260.089 20.7047C256.929 20.7047 254.039 22.505 252.865 25.3856C252.142 27.0959 251.962 27.996 251.871 30.6965H268.398C268.217 27.996 268.037 27.1859 267.314 25.3856ZM251.781 33.037C251.781 40.1482 254.942 44.019 260.902 44.019C264.244 44.019 266.23 43.0288 268.669 40.6883L270.836 42.3987C267.946 45.2792 265.418 46.7194 260.722 46.7194C252.955 46.7194 248.801 41.7685 248.801 32.4068C248.801 23.4052 252.955 18.0942 259.999 18.0942C266.953 18.0942 271.197 23.2252 271.197 31.6867V33.037H251.781Z" fill="#1D1D1B"/>
<path d="M285.015 46.7183C280.138 46.7183 276.526 45.4581 273.636 42.7576L275.713 40.6872C277.88 43.0276 280.86 44.1078 284.924 44.1078C290.433 44.1078 293.323 42.2175 293.323 38.4368C293.323 35.5563 291.607 34.116 287.995 33.7559L283.389 33.3959C277.79 32.9458 274.99 30.4253 274.99 26.1045C274.99 21.3337 278.964 18.1831 285.015 18.1831C288.808 18.1831 292.42 19.2633 294.858 21.1536L292.872 23.134C290.704 21.6037 288.085 20.7936 285.015 20.7936C280.409 20.7936 277.88 22.7739 277.88 26.1946C277.88 29.0751 279.596 30.5153 283.57 30.8754L288.085 31.3255C292.691 31.7756 296.303 33.2158 296.303 38.6168C296.213 43.5677 291.878 46.7183 285.015 46.7183Z" fill="#1D1D1B"/>
<path d="M119.75 105.319V64.0914H146.12V69.6725H125.981V81.7347H143.23V87.3157H125.981V99.7379H146.12V105.319H119.75Z" fill="#1D1D1B"/>
<path d="M157.409 105.319C151.809 105.319 149.371 101.538 149.371 97.2175V64.0914H155.331V96.8574C155.331 99.1078 156.144 100.278 158.492 100.278H161.111V105.319H157.409Z" fill="#1D1D1B"/>
<path d="M180.076 84.2552C179.173 82.0948 177.096 80.5645 174.296 80.5645C171.497 80.5645 169.329 82.0948 168.426 84.2552C167.884 85.6055 167.704 86.4156 167.704 88.2159H180.979C180.798 86.4156 180.618 85.6055 180.076 84.2552ZM167.613 92.3567C167.613 97.3976 170.322 100.548 175.109 100.548C178.45 100.548 180.166 99.648 182.243 97.5776L186.036 101.088C183.056 104.059 180.166 105.679 175.019 105.679C167.613 105.679 161.743 101.808 161.743 90.6464C161.743 81.1046 166.71 75.6136 174.206 75.6136C182.153 75.6136 186.668 81.3747 186.668 89.7462V92.3567H167.613Z" fill="#1D1D1B"/>
<path d="M201.66 105.319H196.783L186.036 75.9732H192.267L199.221 96.587L206.175 75.9732H212.497L201.66 105.319Z" fill="#1D1D1B"/>
<path d="M232.816 105.319L224.598 91.7265L220.173 96.6774V105.319H214.303V64.0914H220.173V89.4761L231.642 75.9736H238.867L228.662 87.4957L240.131 105.319H232.816Z" fill="#1D1D1B"/>
<path d="M252.233 61.03C250.156 61.03 248.53 62.6503 248.53 64.7207C248.53 66.7911 250.246 68.4114 252.233 68.4114C254.31 68.4114 255.935 66.7911 255.935 64.7207C255.935 62.6503 254.219 61.03 252.233 61.03ZM257.741 92.3557H250.788C247.266 92.3557 245.459 93.886 245.459 96.5865C245.459 99.287 247.175 100.727 250.878 100.727C253.136 100.727 254.852 100.547 256.387 99.017C257.29 98.1168 257.651 96.7665 257.651 94.6962V92.3557H257.741ZM252.233 71.922C248.259 71.922 245.008 68.6814 245.008 64.7207C245.008 60.76 248.259 57.5194 252.233 57.5194C256.206 57.5194 259.457 60.76 259.457 64.7207C259.457 68.6814 256.206 71.922 252.233 71.922ZM257.832 105.318V102.618C255.664 104.778 253.678 105.588 249.975 105.588C246.272 105.588 243.834 104.688 242.028 102.888C240.492 101.357 239.68 99.107 239.68 96.5865C239.68 91.6356 243.111 88.125 249.885 88.125H257.651V86.0546C257.651 82.3639 255.755 80.5636 251.239 80.5636C247.988 80.5636 246.453 81.2837 244.827 83.4441L240.944 79.7535C243.744 76.5129 246.633 75.5227 251.51 75.5227C259.548 75.5227 263.702 78.9433 263.702 85.6045V105.318H257.832Z" fill="#1D1D1B"/>
<path d="M284.563 82.815C283.209 81.4647 282.215 80.8346 280.138 80.8346C276.977 80.8346 274.268 83.3551 274.268 87.4058V105.319H268.308V75.9737H274.087V79.1243C275.623 77.0539 278.603 75.6136 281.944 75.6136C284.834 75.6136 286.911 76.3338 288.988 78.4042L284.563 82.815Z" fill="#1D1D1B"/>
<path d="M306.419 84.2552C305.516 82.0948 303.438 80.5645 300.639 80.5645C297.839 80.5645 295.672 82.0948 294.769 84.2552C294.227 85.6055 294.046 86.4156 294.046 88.2159H307.322C307.141 86.4156 306.96 85.6055 306.419 84.2552ZM293.956 92.3567C293.956 97.3976 296.665 100.548 301.452 100.548C304.793 100.548 306.509 99.648 308.586 97.5776L312.379 101.088C309.399 104.059 306.509 105.679 301.361 105.679C293.956 105.679 288.086 101.808 288.086 90.6464C288.086 81.1046 293.053 75.6136 300.549 75.6136C308.496 75.6136 313.011 81.3747 313.011 89.7462V92.3567H293.956Z" fill="#1D1D1B"/>
<path d="M332.789 82.815C331.434 81.4647 330.441 80.8346 328.364 80.8346C325.203 80.8346 322.494 83.3551 322.494 87.4058V105.319H316.533V75.9737H322.313V79.1243C323.848 77.0539 326.828 75.6136 330.17 75.6136C333.06 75.6136 335.137 76.3338 337.214 78.4042L332.789 82.815Z" fill="#1D1D1B"/>
</svg>

<svg width="342" height="110" fill="none" xmlns="http://www.w3.org/2000/svg"><path d="M52.921 41.048c0 6.301-5.147 11.342-11.379 11.342H15.895c-6.322 0-11.38-5.13-11.38-11.342V15.484c0-6.301 5.148-11.342 11.38-11.342h25.647c6.322 0 11.38 5.04 11.38 11.342v25.564Z" fill="#B9C400"/><path d="M106.203 41.048c0 6.301-5.147 11.342-11.379 11.342H69.178c-6.322 0-11.38-5.13-11.38-11.342V15.484c0-6.301 5.148-11.342 11.38-11.342h25.647c6.322 0 11.379 5.04 11.379 11.342v25.564Z" fill="#63C2D0"/><path d="M52.921 94.158c0 6.301-5.147 11.342-11.379 11.342H15.895c-6.322 0-11.38-5.131-11.38-11.342V68.593c0-6.301 5.148-11.342 11.38-11.342h25.647c6.322 0 11.38 5.13 11.38 11.342v25.565Z" fill="#DC6BA5"/><path d="M106.203 94.158c0 6.301-5.147 11.342-11.379 11.342H69.178c-6.322 0-11.38-5.131-11.38-11.342V68.593c0-6.301 5.148-11.342 11.38-11.342h25.647c6.322 0 11.379 5.13 11.379 11.342v25.565Z" fill="#EF7F3C"/><path d="M132.303 46.72c-6.141 0-10.025-1.71-13.818-5.401l2.168-2.16c3.703 3.69 6.773 4.86 11.74 4.86 6.502 0 10.656-3.15 10.656-8.551 0-2.43-.722-4.501-2.257-5.762-1.535-1.26-2.619-1.71-5.961-2.16l-4.786-.72c-3.161-.45-5.599-1.53-7.405-2.97-2.168-1.89-3.251-4.411-3.251-7.562 0-6.931 4.967-11.252 12.823-11.252 5.148 0 8.399 1.35 11.921 4.5l-2.077 2.071c-2.529-2.25-5.148-3.78-10.024-3.78-5.961 0-9.573 3.33-9.573 8.551 0 2.34.723 4.14 2.167 5.401 1.445 1.26 3.793 2.16 6.141 2.52l4.516.72c3.883.54 5.599 1.26 7.405 2.701 2.258 1.89 3.613 4.681 3.613 8.012-.091 6.57-5.419 10.982-13.998 10.982ZM158.402 46.358h-2.889l-10.205-27.905h3.251l8.398 24.485 8.399-24.485h3.251l-10.205 27.905ZM187.03 25.386c-1.264-2.881-4.064-4.681-7.225-4.681-3.161 0-6.05 1.8-7.224 4.68-.723 1.71-.904 2.611-.994 5.311h16.527c-.181-2.7-.362-3.51-1.084-5.31Zm-15.533 7.651c0 7.111 3.161 10.982 9.121 10.982 3.341 0 5.328-.99 7.767-3.33l2.167 1.71c-2.89 2.88-5.419 4.32-10.115 4.32-7.766 0-11.92-4.95-11.92-14.312 0-9.002 4.154-14.313 11.198-14.313 6.954 0 11.198 5.131 11.198 13.593v1.35h-19.416ZM210.961 22.954c-1.716-1.71-2.98-2.16-5.328-2.16-4.786 0-7.496 3.96-7.496 8.461v17.193h-2.98V18.543h2.98v3.69c1.626-2.61 4.877-4.05 8.219-4.05 2.709 0 4.786.72 6.773 2.7l-2.168 2.071ZM215.297 18.453h2.98v27.905h-2.98V18.453Zm-.361-13.323h3.702v3.69h-3.702V5.13ZM233.539 20.704c-6.863 0-7.947 5.94-7.947 11.702 0 5.76 1.084 11.702 7.947 11.702 6.864 0 7.947-5.941 7.947-11.702s-1.083-11.702-7.947-11.702Zm-.542 39.337c-4.154 0-6.321-1.08-9.211-3.691l1.987-1.98c2.167 1.98 3.702 3.06 7.224 3.06 5.87 0 8.489-4.14 8.489-9.632v-4.95c-2.438 3.24-5.147 3.96-8.308 3.96-2.89 0-5.419-.99-6.863-2.43-2.89-2.88-3.613-7.471-3.613-11.882s.723-9.002 3.613-11.883c1.444-1.44 3.973-2.43 6.863-2.43 3.161 0 5.87.72 8.308 3.96v-3.6h2.981V48.07c-.091 6.93-4.245 11.972-11.47 11.972ZM267.314 25.386c-1.264-2.881-4.064-4.681-7.225-4.681-3.16 0-6.05 1.8-7.224 4.68-.723 1.71-.903 2.611-.994 5.311h16.527c-.181-2.7-.361-3.51-1.084-5.31Zm-15.533 7.651c0 7.111 3.161 10.982 9.121 10.982 3.342 0 5.328-.99 7.767-3.33l2.167 1.71c-2.89 2.88-5.418 4.32-10.114 4.32-7.767 0-11.921-4.95-11.921-14.312 0-9.002 4.154-14.313 11.198-14.313 6.954 0 11.198 5.131 11.198 13.593v1.35h-19.416ZM285.015 46.718c-4.877 0-8.489-1.26-11.379-3.96l2.077-2.07c2.167 2.34 5.147 3.42 9.211 3.42 5.509 0 8.399-1.89 8.399-5.671 0-2.88-1.716-4.321-5.328-4.681l-4.606-.36c-5.599-.45-8.399-2.97-8.399-7.291 0-4.771 3.974-7.922 10.025-7.922 3.793 0 7.405 1.08 9.843 2.97l-1.986 1.981c-2.168-1.53-4.787-2.34-7.857-2.34-4.606 0-7.135 1.98-7.135 5.4 0 2.881 1.716 4.321 5.69 4.681l4.515.45c4.606.45 8.218 1.89 8.218 7.292-.09 4.95-4.425 8.101-11.288 8.101ZM119.75 105.319V64.091h26.37v5.582h-20.139v12.062h17.249v5.58h-17.249v12.423h20.139v5.581h-26.37ZM157.409 105.319c-5.6 0-8.038-3.781-8.038-8.102V64.091h5.96v32.766c0 2.25.813 3.421 3.161 3.421h2.619v5.041h-3.702ZM180.076 84.255c-.903-2.16-2.98-3.69-5.78-3.69-2.799 0-4.967 1.53-5.87 3.69-.542 1.35-.722 2.16-.722 3.96h13.275c-.181-1.8-.361-2.61-.903-3.96Zm-12.463 8.102c0 5.04 2.709 8.191 7.496 8.191 3.341 0 5.057-.9 7.134-2.97l3.793 3.51c-2.98 2.971-5.87 4.591-11.017 4.591-7.406 0-13.276-3.871-13.276-15.033 0-9.541 4.967-15.032 12.463-15.032 7.947 0 12.462 5.76 12.462 14.132v2.61h-19.055ZM201.66 105.319h-4.877l-10.747-29.346h6.231l6.954 20.614 6.954-20.614h6.322L201.66 105.32ZM232.816 105.319l-8.218-13.593-4.425 4.951v8.642h-5.87V64.091h5.87v25.385l11.469-13.502h7.225l-10.205 11.522 11.469 17.823h-7.315Z" fill="#1D1D1B"/><path d="M252.233 61.03c-2.077 0-3.703 1.62-3.703 3.69 0 2.071 1.716 3.691 3.703 3.691 2.077 0 3.702-1.62 3.702-3.69s-1.716-3.691-3.702-3.691Zm5.508 31.326h-6.953c-3.522 0-5.329 1.53-5.329 4.23 0 2.701 1.716 4.141 5.419 4.141 2.258 0 3.974-.18 5.509-1.71.903-.9 1.264-2.25 1.264-4.32v-2.341h.09Zm-5.508-20.434c-3.974 0-7.225-3.24-7.225-7.201 0-3.961 3.251-7.202 7.225-7.202 3.973 0 7.224 3.241 7.224 7.202 0 3.96-3.251 7.201-7.224 7.201Zm5.599 33.396v-2.7c-2.168 2.16-4.154 2.97-7.857 2.97-3.703 0-6.141-.9-7.947-2.7-1.536-1.531-2.348-3.781-2.348-6.302 0-4.95 3.431-8.461 10.205-8.461h7.766v-2.07c0-3.691-1.896-5.491-6.412-5.491-3.251 0-4.786.72-6.412 2.88l-3.883-3.69c2.8-3.241 5.689-4.231 10.566-4.231 8.038 0 12.192 3.42 12.192 10.082v19.713h-5.87ZM284.563 82.815c-1.354-1.35-2.348-1.98-4.425-1.98-3.161 0-5.87 2.52-5.87 6.57v17.914h-5.96V75.974h5.779v3.15c1.536-2.07 4.516-3.51 7.857-3.51 2.89 0 4.967.72 7.044 2.79l-4.425 4.411ZM306.419 84.255c-.903-2.16-2.981-3.69-5.78-3.69-2.8 0-4.967 1.53-5.87 3.69-.542 1.35-.723 2.16-.723 3.96h13.276c-.181-1.8-.362-2.61-.903-3.96Zm-12.463 8.102c0 5.04 2.709 8.191 7.496 8.191 3.341 0 5.057-.9 7.134-2.97l3.793 3.51c-2.98 2.971-5.87 4.591-11.018 4.591-7.405 0-13.275-3.871-13.275-15.033 0-9.541 4.967-15.032 12.463-15.032 7.947 0 12.462 5.76 12.462 14.132v2.61h-19.055ZM332.789 82.815c-1.355-1.35-2.348-1.98-4.425-1.98-3.161 0-5.87 2.52-5.87 6.57v17.914h-5.961V75.974h5.78v3.15c1.535-2.07 4.515-3.51 7.857-3.51 2.89 0 4.967.72 7.044 2.79l-4.425 4.411Z" fill="#1D1D1B"/></svg>
